X:1
T:La Caroline
T:La Caroline
T:La Caroline
T:Wq 117/39, H98
T:Carl Philipp Emanuel Bach
T:Public Domain (PianoXML typeset)
C:Carl Philipp Emanuel Bach
Z:Public Domain (PianoXML typeset)
%%score { ( 1 3 ) | 2 }
L:1/8
Q:1/4=110
M:2/4
K:C
V:1 treble nm="Piano" snm="Pno."
V:3 treble 
V:2 bass 
V:1
!p!"^Allegro ma con tenerezza" ([ce]4 |!<(! [df]4 | [B^g]4!<)! | [ca]4) | (c'e){/g}(fe) | %5
 (e2 ^d) z | (b=d){/f}(ed) | (d2 ^c) z | a(cPBA) | a(cPBA) | [ABf]2!>(! (e/d/c/B/) | %11
 (A2 ^G)!>)![GB] | ([^GB]2 [Ac]) [^F^d] | ([^F^d]2 [^Ge]) [GB] | [B=d]2 [Ac]2 | [^GB] E2 E- | %16
 E E2 E- | E([^G,B,][A,C][B,D]) | (([B,=D]2 [A,C]2)) | ([A,C]4 | [^G,B,]) z z2 ::!p! [EG]4 | %22
 ([Ec]2 [Ge]2) | (d3 e/f/ | [Ge]2) z2 | dagf | (f e2 d | e/d/c c2) |!mf! z e2 ^f | %29
 !turn!^f2 a/g/f/e/ | (d2 Tc2) | B!p!(gfe) | (d2 ^c)_b | aagf | (e2 ^d)c' | b(fed) | ^cd z b | %37
 (dc) z a | (cB) z f | (A2 ^G)e | (e2 ^d)a | ^g/^f/e !fermata!e2 | [CE]4 | !tenuto![DF]4 | %44
 [B,^G]4 | [CA]4 | (c'e){/g}(fe) | (e2 ^d) z | (bd){/f}(ed) | (d2 ^c) z | a(cPBA) | %51
 [ABf]2 (e/d/c/B/) |!<(! A2 TB2!<)! |!f! A2 z2 |!mp! _B4- | Bc/d/ c/_B/A/^G/ | A z z2 | %57
 z2 z3/2!ff! [ABf]/ | ([ABf]4 | (3e)dc (3BA^G |"^poco rit." (^G4 | A) z z2 :| %62
V:2
"^con pedale" z A,A,A, | z A,A,A, | z A,A,A, |!f! z (A,E,C, | A,,4) | z (B,,B,A, | ^G,4) | %7
 z (A,,A,G, | F,4) | E,4 | D,D,D,D, | E,E,E,!p!E, | E,E,E,E, | E,E,E,E, | ^D,D,D,D, | %15
 E,!f!(E,D,C, | B,,A,,^G,,^F,, | E,,4) | ^D,,4 | E,,4- | E,, z z2 :: z CCC | CCCC | B,B,B,B, | %24
 (CC,D,E,) | F,F,F,F, | G,G,G,G, | CC,E,G, | CCCC | B,B,B,B, | A,A,A,A, | G,2 z2 | z (_B,A,G, | %33
 F,2) z2 | z (CB,A, | ^G,)G,G,G, | ^G,G,G,G, | A,A,A,A, | D,D,D,D, | E,E,E,[E,^G,] | %40
 [F,A,][F,A,][F,A,]F, | !fermata!E,4 |!pp! z A,,A,,A,, | z A,,A,,A,, | z A,,A,,A,, | %45
 z!f! (A,,C,E, | A,4) | z (B,,B,A, | ^G,4) | z (A,,A,G, | F,3) E, | D,D,D,D, | E,E,E,E, | F,2 z2 | %54
[K:treble] [DF][DF][DF][DF] | EEEE | F z z2 | z4 |[K:bass] D,D,D,D, | E,E,E,E, | A,,4- | %61
 A,, z z2 :| %62
V:3
 x4 | x4 | x4 | x4 | x4 | x4 | x4 | x4 | x4 | x4 | x4 | x4 | x4 | x4 | x4 | x4 | x4 | x4 | x4 | %19
 x4 | x4 :: x4 | x4 | G4 | x4 | A4 | B4 | x4 | x4 | x4 | x4 | x4 | x4 | x4 | x4 | x4 | x4 | x4 | %38
 x4 | x4 | x4 | x4 | x4 | x4 | x4 | x4 | x4 | x4 | x4 | x4 | x4 | x4 | x4 | x4 | x4 | x4 | x4 | %57
 x4 | x4 | x4 | x4 | x4 :| %62

